X:7
T: STIMMT AN MIT HELLEM HOHEN KLANG
N: B0005
O: Europa, Mitteleuropa, Deutschland
R: politisch, national, Vaterlands - Lied
M: 4/4
L: 1/8
K: G
D2 | G3DG2A2 | B3AG2
A2 | B2A2B2c2 | d3cB2
G2 | e3cG2e2 | d3BG2
D2 | E2F2G2c2 | B4A4 | G4z2

@@@ Tune index: 1810
